IMG/icon.svg

<svg xmlns="http://www.w3.org/2000/svg" width="130" height="130" viewBox="0 0 650 650">
    <path d="M620.45 325h0l-.07-2.95-.22-2.95-.37-2.95-.52-2.93-.66-2.91-.81-2.9-.95-2.87-1.1-2.85-1.25-2.82-1.38-2.78-1.53-2.74-1.67-2.71-1.8-2.65-1.95-2.61-2.08-2.56-2.22-2.5-2.34-2.44-2.48-2.38-2.61-2.32-2.73-2.24-2.86-2.18-2.98-2.1-3.1-2.02-3.21-1.93-3.33-1.86-3.45-1.77-3.55-1.67-3.65-1.59-3.76-1.49-3.86-1.39-3.96-1.3-4.05-1.19-4.14-1.08-4.22-.98-4.31-.88-4.39-.76-4.47-.65-4.54-.53-4.61-.43-4.67-.3-4.74-.19-4.79-.06-4.85.05-4.9.18-4.95.3-4.98.42-5.03.54-5.06.67-5.09.8-5.12.92-5.14 1.04-5.15 1.17-5.18 1.3-5.18 1.42-5.19 1.55-5.19 1.67-5.19 1.8-5.18 1.92-5.17 2.04-5.16 2.17-5.14 2.29-5.12 2.4-5.09 2.53-5.06 2.64-5.03 2.76-4.99 2.87-4.95 2.99-4.91 3.1-4.86 3.2-4.8 3.32-4.75 3.42-4.69 3.52-4.63 3.62-4.56 3.73-4.49 3.81-4.42 3.92-4.34 4-4.26 4.09-4.18 4.17-4.1 4.26-4.01 4.34-3.92 4.41-3.82 4.48-3.73 4.56-3.63 4.62-3.53 4.68-3.43 4.75-3.33 4.8-3.21 4.85-3.11 4.9-2.99 4.95-2.89 4.99-2.76 5.02-2.66 5.07-2.53 5.09-2.42 5.11-2.29 5.14-2.18 5.16-2.05 5.17-1.93 5.18-1.81 5.19-1.68 5.19-1.56 5.19-1.43 5.18-1.31 5.17-1.18 5.16-1.05 5.14-.93 5.12-.81 5.1-.68 5.06-.55 5.03-.44 4.99-.3 4.95-.19 4.9-.06 4.85.05 4.8.18 4.74.3 4.68.41 4.61.52 4.55.65 4.47.75 4.4.86 4.32.97 4.23 1.08 4.15 1.19 4.05 1.28 3.97 1.39 3.86 1.48 3.77 1.58 3.67 1.67 3.55 1.76 3.46 1.85 3.33 1.93 3.23 2.01 3.11 2.09 2.99 2.17 2.86 2.24 2.75 2.31 2.61 2.37 2.49 2.44 2.36 2.5 2.23 2.55 2.09 2.61 1.96 2.65 1.81 2.7 1.68 2.74 1.54 2.78 1.4 2.81 1.25 2.85 1.12 2.87.96 2.9.82 2.91.68 2.93.52 2.94.39 2.95.23 2.95.08 2.96-.06 2.95-.21 2.94-.36 2.93-.5 2.92-.65 2.9-.8 2.87-.94 2.85-1.09 2.82-1.23 2.79-1.38 2.75-1.51 2.7-1.66 2.66-1.8 2.62-1.93 2.56-2.07 2.5-2.2 2.45-2.34 2.39-2.47 2.32-2.6 2.25-2.72 2.18-2.85 2.1-2.97 2.03-3.09 1.94-3.2 1.86-3.33 1.78-3.43 1.68-3.54 1.6-3.65 1.49-3.75 1.41-3.85 1.3-3.95 1.2-4.04 1.09-4.13.99-4.22.88-4.31.77-4.38.66-4.46.55-4.54.43-4.6.31-4.67.2-4.73.07-4.79-.04-4.84-.17-4.9-.29-4.94-.41-4.98-.53-5.03-.66-5.06-.79-5.08-.91-5.12-1.03-5.14-1.17-5.15-1.28-5.17-1.42-5.19-1.53-5.18-1.67-5.19-1.78-5.19-1.91-5.19-2.04-5.17-2.15-5.16-2.28-5.14-2.4-5.12-2.51-5.1-2.64-5.06-2.75-5.03-2.86-5-2.98-4.95-3.09-4.91-3.2-4.86-3.3-4.81-3.41-4.75-3.52-4.7-3.61-4.63-3.72-4.57-3.81-4.49-3.9-4.43-3.99-4.35-4.09-4.27-4.17-4.18-4.25-4.11-4.33-4.01-4.4-3.93-4.48-3.83-4.55-3.74-4.62-3.64-4.68-3.54-4.74-3.43-4.79-3.33-4.85-3.23-4.9-3.11-4.94-3.01-4.99-2.89-5.02-2.78-5.06-2.66-5.09-2.54-5.11-2.43-5.14-2.3-5.16-2.19-5.17-2.06-5.18-1.94-5.19-1.82-5.19-1.69-5.19-1.57-5.18-1.44-5.17-1.32-5.16-1.19-5.15-1.06-5.12-.95-5.09-.81-5.07-.69-5.03-.56-4.99-.45-4.95-.31-4.91-.2-4.86-.07-4.8.05-4.75.16-4.68.29-4.62.4-4.55.52-4.48.63-4.4.74-4.33.86-4.24.96-4.15 1.07-4.06 1.18-3.97 1.27-3.88 1.38-3.77 1.48-3.68 1.57-3.57 1.66-3.45 1.75-3.35 1.85-3.24 1.92-3.11 2.01-3 2.08-2.88 2.16-2.75 2.24-2.63 2.3-2.5 2.37-2.37 2.44-2.24 2.49-2.1 2.55-1.96 2.6-1.83 2.65-1.69 2.69-1.55 2.74-1.41 2.78-1.27 2.81-1.12 2.84-.98 2.87-.83 2.89-.69 2.92-.54 2.93-.39 2.94-.25 2.95-.09 2.95.05 2.95.2 2.95.34 2.95.49 2.93.64 2.92.79 2.9.93 2.88 1.08 2.85 1.22 2.82 1.36 2.79 1.51 2.75 1.64 2.71 1.79 2.66 1.92 2.62 2.06 2.57 2.19 2.51 2.33 2.45 2.46 2.39 2.59 2.32 2.71 2.26 2.84 2.19 2.96 2.11 3.08 2.03 3.19 1.95 3.32 1.87 3.42 1.78 3.53 1.69 3.64 1.6 3.75 1.51 3.84 1.41 3.94 1.31 4.04 1.2 4.12 1.11 4.22 1 4.29.89 4.38.77 4.45.67 4.53.56 4.6.44 4.67.32 4.72.2 4.79.09 4.84-.03 4.89-.16 4.94-.28 4.98-.4 5.02-.53 5.05-.65 5.09-.77 5.11-.9 5.14-1.03 5.15-1.15 5.17-1.28 5.18-1.4 5.19-1.53 5.19-1.65 5.19-1.78 5.18-1.9 5.18-2.02 5.16-2.15 5.14-2.26 5.12-2.39 5.1-2.51 5.07-2.62 5.03-2.74 5-2.86 4.96-2.97 4.91-3.08 4.87-3.19 4.81-3.29 4.76-3.41 4.7-3.5 4.63-3.61 4.58-3.71 4.5-3.8 4.43-3.9 4.35-3.98 4.28-4.08 4.19-4.16 4.11-4.25 4.03-4.32 3.93-4.4 3.84-4.47 3.75-4.55 3.64-4.61 3.55-4.67 3.44-4.74 3.34-4.79 3.24-4.85 3.12-4.89 3.01-4.94 2.9-4.98 2.79-5.02 2.67-5.06 2.56-5.08 2.43-5.12 2.32-5.13 2.19-5.16 2.07-5.16 1.95-5.19 1.83-5.18 1.7-5.19 1.58-5.19 1.45-5.19 1.33-5.17 1.2-5.16 1.07-5.15.95-5.12.83-5.1.7-5.06.57-5.04.46-5 .32-4.95.21-4.91.08-4.86-.04-4.81-.15-4.75-.28-4.69-.39-4.62-.51-4.56-.63-4.49-.73-4.4-.85-4.33-.95-4.25-1.06-4.16-1.17-4.07-1.27-3.98-1.37-3.88-1.47-3.79-1.56-3.68-1.66-3.58-1.74-3.46-1.84-3.36-1.91-3.24-2-3.13-2.08-3.01-2.16-2.89-2.23-2.76-2.3-2.64-2.36-2.51-2.43-2.37-2.49-2.25-2.54-2.12-2.6-1.97-2.65-1.84-2.69-1.7-2.73-1.57-2.78-1.42-2.8-1.27-2.84-1.14-2.87-.99-2.89-.84-2.91-.7-2.93-.55-2.94-.4-2.95-.26-2.95-.11-2.96.04-2.95.18-2.94.34-2.94.48-2.92.63-2.9.77-2.88.92-2.85 1.07-2.83 1.21-2.79 1.35-2.75 1.49-2.71 1.64-2.67 1.77-2.62 1.91-2.57 2.05-2.52 2.18-2.46 2.32-2.39 2.45-2.33 2.58-2.26 2.7-2.2 2.83-2.11 2.95-2.04 3.07-1.96 3.19-1.87 3.3-1.79 3.41-1.7 3.53-1.61 3.63-1.51 3.74-1.42 3.83-1.32 3.93-1.21 4.03-1.11 4.12-1.01 4.21-.9 4.29-.79 4.37-.67 4.45-.57 4.52-.45 4.59-.33 4.66-.21 4.72-.1 4.78.03 4.84.14 4.89.27 4.93.39 4.98.52 5.02.64 5.05.77 5.08.89 5.11 1.01 5.14 1.14 5.15 1.27 5.17 1.39 5.18 1.52 5.19 1.64 5.19 1.77 5.19 1.89 5.18 2.01 5.18 2.14 5.16 2.26 5.14 2.38 5.13 2.49 5.1 2.62 5.07 2.73 5.03 2.85 5.01 2.96 4.96 3.07 4.91 3.18 4.87 3.29 4.82 3.39 4.76 3.5 4.7 3.6 4.65 3.7 4.57 3.79 4.51 3.89 4.44 3.98 4.36 4.07 4.28 4.16 4.2 4.23 4.12 4.32 4.03 4.4 3.94 4.46 3.85 4.54 3.75 4.61 3.66 4.67 3.55 4.73 3.45 4.79 3.35 4.84 3.24 4.89 3.14 4.93 3.02 4.98 2.91 5.02 2.79 5.05 2.68 5.09 2.57 5.11 2.44 5.13 2.33 5.15 2.2 5.17 2.08 5.18 1.96 5.19 1.84 5.19 1.71 5.19 1.59 5.18 1.46 5.18 1.34 5.16 1.21 5.15 1.08 5.12.96 5.1.84 5.07.71 5.04.58 5 .46 4.96.34 4.91.22 4.87.09 4.81-.03 4.75-.15 4.7-.26 4.63-.39 4.56-.5 4.49-.61 4.42-.73 4.33-.84 4.26-.94 4.16-1.06 4.08-1.15 3.99-1.26 3.89-1.37 3.79-1.46 3.69-1.55 3.58-1.65 3.48-1.74 3.37-1.83 3.25-1.91 3.14-1.99 3.01-2.08 2.9-2.15 2.77-2.22 2.65-2.29 2.52-2.36 2.39-2.42 2.26-2.49 2.12-2.54 1.99-2.59 1.85-2.64 1.71-2.69 1.58-2.73 1.43-2.77 1.29-2.81 1.14-2.84 1-2.86.86-2.89.71-2.91.56-2.93.42-2.94.27-2.95.12-2.95z" fill="none" stroke="#00f" stroke-width="30">
        <animateTransform attributeName="transform" begin="0s" dur="4s" from="0 325 325" repeatCount="indefinite" to="-360 325 325" type="rotate" />
    </path>
</svg>

<svg xmlns="http://www.w3.org/2000/svg"
    width="130" height="130" viewBox="0 0 650 650" >
    <rect x="0" y="0" width="650" height="650" fill="blue" stroke="blue" />
    <path d="M 620.45 325.00 L620.45 325.00 L620.38 322.05 L620.16 319.10 L619.79 316.15 L619.27 313.22 L618.61 310.31 L617.80 307.41 L616.85 304.54 L615.75 301.69 L614.50 298.87 L613.12 296.09 L611.59 293.35 L609.92 290.64 L608.12 287.99 L606.17 285.38 L604.09 282.82 L601.87 280.32 L599.53 277.88 L597.05 275.50 L594.44 273.18 L591.71 270.94 L588.85 268.76 L585.87 266.66 L582.77 264.64 L579.56 262.71 L576.23 260.85 L572.78 259.08 L569.23 257.41 L565.58 255.82 L561.82 254.33 L557.96 252.94 L554.00 251.64 L549.95 250.45 L545.81 249.37 L541.59 248.39 L537.28 247.51 L532.89 246.75 L528.42 246.10 L523.88 245.57 L519.27 245.14 L514.60 244.84 L509.86 244.65 L505.07 244.59 L500.22 244.64 L495.32 244.82 L490.37 245.12 L485.39 245.54 L480.36 246.08 L475.30 246.75 L470.21 247.55 L465.09 248.47 L459.95 249.51 L454.80 250.68 L449.62 251.98 L444.44 253.40 L439.25 254.95 L434.06 256.62 L428.87 258.42 L423.69 260.34 L418.52 262.38 L413.36 264.55 L408.22 266.84 L403.10 269.24 L398.01 271.77 L392.95 274.41 L387.92 277.17 L382.93 280.04 L377.98 283.03 L373.07 286.13 L368.21 289.33 L363.41 292.65 L358.66 296.07 L353.97 299.59 L349.34 303.21 L344.78 306.94 L340.29 310.75 L335.87 314.67 L331.53 318.67 L327.27 322.76 L323.09 326.93 L318.99 331.19 L314.98 335.53 L311.06 339.94 L307.24 344.42 L303.51 348.98 L299.88 353.60 L296.35 358.28 L292.92 363.03 L289.59 367.83 L286.38 372.68 L283.27 377.58 L280.28 382.53 L277.39 387.52 L274.63 392.54 L271.97 397.61 L269.44 402.70 L267.02 407.81 L264.73 412.95 L262.55 418.11 L260.50 423.28 L258.57 428.46 L256.76 433.65 L255.08 438.84 L253.52 444.03 L252.09 449.21 L250.78 454.38 L249.60 459.54 L248.55 464.68 L247.62 469.80 L246.81 474.90 L246.13 479.96 L245.58 484.99 L245.14 489.98 L244.84 494.93 L244.65 499.83 L244.59 504.68 L244.64 509.48 L244.82 514.22 L245.12 518.90 L245.53 523.51 L246.05 528.06 L246.70 532.53 L247.45 536.93 L248.31 541.25 L249.28 545.48 L250.36 549.63 L251.55 553.68 L252.83 557.65 L254.22 561.51 L255.70 565.28 L257.28 568.95 L258.95 572.50 L260.71 575.96 L262.56 579.29 L264.49 582.52 L266.50 585.63 L268.59 588.62 L270.76 591.48 L273.00 594.23 L275.31 596.84 L277.68 599.33 L280.12 601.69 L282.62 603.92 L285.17 606.01 L287.78 607.97 L290.43 609.78 L293.13 611.46 L295.87 613.00 L298.65 614.40 L301.46 615.65 L304.31 616.77 L307.18 617.73 L310.08 618.55 L312.99 619.23 L315.92 619.75 L318.86 620.14 L321.81 620.37 L324.76 620.45 L327.72 620.39 L330.67 620.18 L333.61 619.82 L336.54 619.32 L339.46 618.67 L342.36 617.87 L345.23 616.93 L348.08 615.84 L350.90 614.61 L353.69 613.23 L356.44 611.72 L359.14 610.06 L361.80 608.26 L364.42 606.33 L366.98 604.26 L369.48 602.06 L371.93 599.72 L374.32 597.25 L376.64 594.65 L378.89 591.93 L381.07 589.08 L383.17 586.11 L385.20 583.02 L387.14 579.82 L389.00 576.49 L390.78 573.06 L392.46 569.52 L394.06 565.87 L395.55 562.12 L396.96 558.27 L398.26 554.32 L399.46 550.28 L400.55 546.15 L401.54 541.93 L402.42 537.62 L403.19 533.24 L403.85 528.78 L404.40 524.24 L404.83 519.64 L405.14 514.97 L405.34 510.24 L405.41 505.45 L405.37 500.61 L405.20 495.71 L404.91 490.77 L404.50 485.79 L403.97 480.76 L403.31 475.70 L402.52 470.62 L401.61 465.50 L400.58 460.36 L399.41 455.21 L398.13 450.04 L396.71 444.85 L395.18 439.67 L393.51 434.48 L391.73 429.29 L389.82 424.10 L387.78 418.93 L385.63 413.77 L383.35 408.63 L380.95 403.51 L378.44 398.41 L375.80 393.35 L373.05 388.32 L370.19 383.32 L367.21 378.37 L364.12 373.46 L360.92 368.60 L357.62 363.79 L354.21 359.04 L350.69 354.34 L347.08 349.71 L343.36 345.14 L339.55 340.65 L335.65 336.22 L331.66 331.87 L327.57 327.60 L323.40 323.42 L319.15 319.31 L314.82 315.30 L310.42 311.37 L305.94 307.54 L301.39 303.80 L296.77 300.16 L292.09 296.62 L287.35 293.19 L282.56 289.86 L277.71 286.63 L272.81 283.52 L267.87 280.51 L262.88 277.62 L257.86 274.84 L252.80 272.18 L247.71 269.64 L242.60 267.21 L237.46 264.91 L232.30 262.72 L227.13 260.66 L221.95 258.72 L216.76 256.90 L211.57 255.21 L206.38 253.64 L201.20 252.20 L196.03 250.88 L190.87 249.69 L185.72 248.63 L180.60 247.68 L175.51 246.87 L170.44 246.18 L165.41 245.62 L160.42 245.17 L155.47 244.86 L150.56 244.66 L145.70 244.59 L140.90 244.64 L136.15 244.80 L131.47 245.09 L126.85 245.49 L122.30 246.01 L117.82 246.64 L113.42 247.38 L109.09 248.24 L104.85 249.20 L100.70 250.27 L96.64 251.45 L92.67 252.72 L88.79 254.10 L85.02 255.58 L81.34 257.15 L77.77 258.81 L74.32 260.56 L70.97 262.41 L67.73 264.33 L64.62 266.34 L61.62 268.42 L58.74 270.58 L55.99 272.82 L53.36 275.12 L50.86 277.49 L48.49 279.93 L46.25 282.42 L44.15 284.97 L42.19 287.57 L40.36 290.22 L38.67 292.91 L37.12 295.65 L35.71 298.43 L34.44 301.24 L33.32 304.08 L32.34 306.95 L31.51 309.84 L30.82 312.76 L30.28 315.69 L29.89 318.63 L29.64 321.58 L29.55 324.53 L29.60 327.48 L29.80 330.43 L30.14 333.38 L30.63 336.31 L31.27 339.23 L32.06 342.13 L32.99 345.01 L34.07 347.86 L35.29 350.68 L36.65 353.47 L38.16 356.22 L39.80 358.93 L41.59 361.59 L43.51 364.21 L45.57 366.78 L47.76 369.29 L50.09 371.74 L52.55 374.13 L55.14 376.45 L57.85 378.71 L60.69 380.90 L63.65 383.01 L66.73 385.04 L69.92 386.99 L73.24 388.86 L76.66 390.64 L80.19 392.33 L83.83 393.93 L87.58 395.44 L91.42 396.85 L95.36 398.16 L99.40 399.36 L103.52 400.47 L107.74 401.47 L112.03 402.36 L116.41 403.13 L120.86 403.80 L125.39 404.36 L129.99 404.80 L134.66 405.12 L139.38 405.32 L144.17 405.41 L149.01 405.38 L153.90 405.22 L158.84 404.94 L163.82 404.54 L168.84 404.01 L173.89 403.36 L178.98 402.59 L184.09 401.69 L189.23 400.66 L194.38 399.51 L199.55 398.23 L204.73 396.83 L209.92 395.30 L215.11 393.65 L220.30 391.87 L225.48 389.97 L230.66 387.95 L235.82 385.80 L240.96 383.54 L246.08 381.15 L251.18 378.64 L256.25 376.02 L261.28 373.28 L266.28 370.42 L271.24 367.45 L276.15 364.37 L281.02 361.18 L285.83 357.89 L290.59 354.48 L295.29 350.98 L299.92 347.37 L304.50 343.66 L309.00 339.86 L313.43 335.96 L317.78 331.98 L322.06 327.90 L326.25 323.74 L330.36 319.49 L334.39 315.17 L338.32 310.77 L342.16 306.30 L345.91 301.75 L349.55 297.14 L353.10 292.47 L356.54 287.73 L359.88 282.94 L363.12 278.09 L366.24 273.20 L369.25 268.26 L372.15 263.28 L374.94 258.26 L377.61 253.20 L380.17 248.12 L382.60 243.00 L384.92 237.87 L387.11 232.71 L389.18 227.55 L391.13 222.36 L392.96 217.18 L394.66 211.99 L396.24 206.80 L397.69 201.61 L399.02 196.44 L400.22 191.28 L401.29 186.13 L402.24 181.01 L403.07 175.91 L403.77 170.85 L404.34 165.81 L404.80 160.81 L405.12 155.86 L405.33 150.95 L405.41 146.09 L405.37 141.28 L405.22 136.53 L404.94 131.84 L404.55 127.22 L404.04 122.66 L403.41 118.17 L402.68 113.77 L401.83 109.44 L400.88 105.19 L399.82 101.03 L398.65 96.96 L397.38 92.98 L396.01 89.10 L394.54 85.31 L392.98 81.63 L391.32 78.05 L389.58 74.59 L387.74 71.23 L385.83 67.99 L383.83 64.86 L381.75 61.85 L379.59 58.96 L377.36 56.20 L375.06 53.56 L372.70 51.05 L370.27 48.68 L367.78 46.43 L365.24 44.31 L362.64 42.34 L359.99 40.50 L357.30 38.80 L354.57 37.23 L351.79 35.81 L348.99 34.54 L346.15 33.40 L343.28 32.41 L340.39 31.57 L337.48 30.87 L334.55 30.32 L331.61 29.92 L328.66 29.66 L325.71 29.55 L322.75 29.59 L319.80 29.77 L316.86 30.11 L313.92 30.59 L311.00 31.22 L308.10 31.99 L305.22 32.91 L302.37 33.98 L299.54 35.19 L296.75 36.54 L294.00 38.03 L291.29 39.67 L288.62 41.44 L286.00 43.35 L283.43 45.40 L280.91 47.58 L278.45 49.90 L276.06 52.35 L273.73 54.93 L271.47 57.63 L269.27 60.46 L267.16 63.41 L265.12 66.48 L263.16 69.67 L261.29 72.97 L259.50 76.38 L257.80 79.91 L256.19 83.54 L254.68 87.28 L253.26 91.11 L251.94 95.04 L250.73 99.07 L249.62 103.19 L248.61 107.40 L247.71 111.69 L246.92 116.06 L246.25 120.51 L245.68 125.03 L245.23 129.62 L244.90 134.28 L244.69 139.00 L244.59 143.78 L244.62 148.62 L244.76 153.51 L245.03 158.44 L245.42 163.42 L245.94 168.44 L246.58 173.49 L247.35 178.57 L248.24 183.68 L249.25 188.82 L250.39 193.97 L251.66 199.14 L253.05 204.32 L254.57 209.51 L256.21 214.70 L257.98 219.89 L259.87 225.07 L261.88 230.25 L264.02 235.41 L266.28 240.55 L268.66 245.68 L271.15 250.78 L273.77 255.85 L276.50 260.88 L279.35 265.89 L282.31 270.85 L285.38 275.76 L288.56 280.63 L291.85 285.45 L295.24 290.21 L298.74 294.91 L302.34 299.56 L306.04 304.13 L309.83 308.64 L313.72 313.08 L317.70 317.44 L321.77 321.72 L325.93 325.92 L330.16 330.04 L334.48 334.07 L338.88 338.01 L343.34 341.86 L347.88 345.61 L352.49 349.27 L357.16 352.82 L361.89 356.27 L366.68 359.62 L371.52 362.86 L376.41 366.00 L381.34 369.02 L386.32 371.93 L391.34 374.72 L396.39 377.40 L401.48 379.97 L406.59 382.41 L411.72 384.74 L416.87 386.94 L422.04 389.02 L427.22 390.98 L432.41 392.82 L437.60 394.53 L442.79 396.12 L447.97 397.58 L453.15 398.92 L458.31 400.13 L463.46 401.21 L468.58 402.17 L473.68 403.01 L478.75 403.72 L483.79 404.30 L488.79 404.76 L493.75 405.10 L498.66 405.32 L503.53 405.41 L508.34 405.38 L513.09 405.23 L517.79 404.97 L522.42 404.58 L526.98 404.08 L531.47 403.47 L535.89 402.74 L540.22 401.90 L544.48 400.96 L548.64 399.90 L552.72 398.75 L556.71 397.49 L560.60 396.12 L564.39 394.66 L568.08 393.11 L571.66 391.46 L575.14 389.72 L578.51 387.89 L581.76 385.98 L584.90 383.99 L587.91 381.91 L590.81 379.76 L593.58 377.54 L596.23 375.25 L598.75 372.89 L601.14 370.47 L603.40 367.98 L605.52 365.44 L607.51 362.85 L609.36 360.21 L611.07 357.52 L612.65 354.79 L614.08 352.02 L615.37 349.21 L616.51 346.37 L617.51 343.51 L618.37 340.62 L619.08 337.71 L619.64 334.78 L620.06 331.84 L620.33 328.89 L620.45 325.94 Z"
        fill="none" stroke="white" stroke-width="30"/>
</svg>
